**harm	**harte	**timestamp	**phrase	**leadinstrument	**kern
*M4/4	*M4/4	*	*	*	*
*C:	*C:	*	*	*	*C:
1r;	N	0	.	r	1r;
=1	=1	=1	=1	=1	=1
*>A2_intro	*>A2_intro	*>A2_intro	*>A2_intro	*>A2_intro	*>A2_intro
1I	C:maj	0.279	newline	r	1C 1e 1g
=2	=2	=2	=2	=2	=2
1II	D:maj	2.284	.	r	1D 1f# 1a
=3	=3	=3	=3	=3	=3
1IV	F:maj	4.289	.	r	1F 1a 1cc
=4	=4	=4	=4	=4	=4
1V	G:sus4	6.294	.	r	1G 1b 1dd
=5	=5	=5	=5	=5	=5
*>A_chorus	*>A_chorus	*>A_chorus	*>A_chorus	*>A_chorus	*>A_chorus
1I	C:maj	8.299	newline	voice	1C 1e 1g
=6	=6	=6	=6	=6	=6
1II	D:maj	10.261	.	voice	1D 1f# 1a
=7	=7	=7	=7	=7	=7
1IV	F:maj	12.222	.	voice	1F 1a 1cc
=8	=8	=8	=8	=8	=8
1V	G:sus4	14.184	.	voice	1G 1b 1dd
=9	=9	=9	=9	=9	=9
1I	C:maj	16.145	newline	voice	1C 1e 1g
=10	=10	=10	=10	=10	=10
1II	D:maj	18.103	.	voice	1D 1f# 1a
=11	=11	=11	=11	=11	=11
1IV	F:maj	20.061	.	voice	1F 1a 1cc
=12	=12	=12	=12	=12	=12
1V	G:sus4	22.019	.	voice	1G 1b 1dd
=13	=13	=13	=13	=13	=13
*>B_verse	*>B_verse	*>B_verse	*>B_verse	*>B_verse	*>B_verse
1V	G:sus4	23.977	newline	voice	1G 1b 1dd
=14	=14	=14	=14	=14	=14
1V	G:sus4	25.933	.	voice	1G 1b 1dd
=15	=15	=15	=15	=15	=15
1IV	F:maj	27.889	.	voice	1F 1a 1cc
=16	=16	=16	=16	=16	=16
1IV	F:maj	29.844	.	voice	1F 1a 1cc
=17	=17	=17	=17	=17	=17
1V	G:sus4	31.8	newline	voice	1G 1b 1dd
=18	=18	=18	=18	=18	=18
1V	G:sus4	33.763	.	voice	1G 1b 1dd
=19	=19	=19	=19	=19	=19
1IV	F:maj	35.726	.	voice	1F 1a 1cc
=20	=20	=20	=20	=20	=20
1IV	F:maj	37.689	.	voice	1F 1a 1cc
=21	=21	=21	=21	=21	=21
1V	G:sus4	39.652	newline	voice	1G 1b 1dd
=22	=22	=22	=22	=22	=22
1V	G:sus4	41.608	.	voice	1G 1b 1dd
=23	=23	=23	=23	=23	=23
1vi	A:min	43.564	.	voice	1A 1cc 1ee
=24	=24	=24	=24	=24	=24
1vi	A:min	45.52	.	voice	1A 1cc 1ee
=25	=25	=25	=25	=25	=25
1ii	D:min	47.476	newline	voice	1D 1f 1a
=26	=26	=26	=26	=26	=26
1ii	D:min	49.409	.	voice	1D 1f 1a
=27	=27	=27	=27	=27	=27
2V	G:maj	51.342	.	voice	2G 2b 2dd
2Vd	G:maj/b7	52.309	.	voice	2g 2b 2dd
=28	=28	=28	=28	=28	=28
2Vg	G:maj/6	53.275	.	voice	2G 2b 2dd
2Vc	G:maj/5	54.242	.	voice	2g 2b 2D
=29	=29	=29	=29	=29	=29
*>A_chorus	*>A_chorus	*>A_chorus	*>A_chorus	*>A_chorus	*>A_chorus
1I	C:maj	55.208	newline	voice	1C 1e 1g
=30	=30	=30	=30	=30	=30
1II	D:maj	57.176	.	voice	1D 1f# 1a
=31	=31	=31	=31	=31	=31
1IV	F:maj	59.143	.	voice	1F 1a 1cc
=32	=32	=32	=32	=32	=32
1V	G:sus4	61.111	.	voice	1G 1b 1dd
=33	=33	=33	=33	=33	=33
1I	C:maj	63.078	newline	voice	1C 1e 1g
=34	=34	=34	=34	=34	=34
1II	D:maj	65.021	.	voice	1D 1f# 1a
=35	=35	=35	=35	=35	=35
1IV	F:maj	66.963	.	voice	1F 1a 1cc
=36	=36	=36	=36	=36	=36
1V	G:sus4	68.905	.	voice	1G 1b 1dd
=37	=37	=37	=37	=37	=37
*>B_verse	*>B_verse	*>B_verse	*>B_verse	*>B_verse	*>B_verse
1V	G:sus4	70.848	newline	voice	1G 1b 1dd
=38	=38	=38	=38	=38	=38
1V	G:sus4	72.789	.	voice	1G 1b 1dd
=39	=39	=39	=39	=39	=39
1IV	F:maj	74.73	.	voice	1F 1a 1cc
=40	=40	=40	=40	=40	=40
1IV	F:maj	76.671	.	voice	1F 1a 1cc
=41	=41	=41	=41	=41	=41
1V	G:sus4	78.613	newline	voice	1G 1b 1dd
=42	=42	=42	=42	=42	=42
1V	G:sus4	80.559	.	voice	1G 1b 1dd
=43	=43	=43	=43	=43	=43
1IV	F:maj	82.505	.	voice	1F 1a 1cc
=44	=44	=44	=44	=44	=44
1IV	F:maj	84.452	.	voice	1F 1a 1cc
=45	=45	=45	=45	=45	=45
1V	G:sus4	86.398	newline	voice	1G 1b 1dd
=46	=46	=46	=46	=46	=46
1V	G:sus4	88.35	.	voice	1G 1b 1dd
=47	=47	=47	=47	=47	=47
1vi	A:min	90.303	.	voice	1A 1cc 1ee
=48	=48	=48	=48	=48	=48
1vi	A:min	92.255	.	voice	1A 1cc 1ee
=49	=49	=49	=49	=49	=49
1ii	D:min	94.207	newline	voice	1D 1f 1a
=50	=50	=50	=50	=50	=50
1ii	D:min	96.135	.	voice	1D 1f 1a
=51	=51	=51	=51	=51	=51
2V	G:maj	98.063	.	voice	2G 2b 2dd
2Vd	G:maj/b7	99.027	.	voice	2g 2b 2dd
=52	=52	=52	=52	=52	=52
2Vg	G:maj/6	99.991	.	voice	2G 2b 2dd
2Vc	G:maj/5	100.955	.	voice	2g 2b 2D
=53	=53	=53	=53	=53	=53
*>A_chorus	*>A_chorus	*>A_chorus	*>A_chorus	*>A_chorus	*>A_chorus
1I	C:maj	101.918	newline	voice	1C 1e 1g
=54	=54	=54	=54	=54	=54
1II	D:maj	103.869	.	voice	1D 1f# 1a
=55	=55	=55	=55	=55	=55
1IV	F:maj	105.82	.	voice	1F 1a 1cc
=56	=56	=56	=56	=56	=56
1V	G:sus4	107.771	.	voice	1G 1b 1dd
=57	=57	=57	=57	=57	=57
1I	C:maj	109.722	newline	voice	1C 1e 1g
=58	=58	=58	=58	=58	=58
1II	D:maj	111.684	.	voice	1D 1f# 1a
=59	=59	=59	=59	=59	=59
1IV	F:maj	113.645	.	voice	1F 1a 1cc
=60	=60	=60	=60	=60	=60
1V	G:sus4	115.606	.	voice	1G 1b 1dd
=61	=61	=61	=61	=61	=61
*>C_bridge	*>C_bridge	*>C_bridge	*>C_bridge	*>C_bridge	*>C_bridge
2-III	E-:maj	117.568	newline	voice	2E- 2g 2b-
2-III7	E-:maj7	118.549	.	voice	2E- 2g 2b- 2dd
=62	=62	=62	=62	=62	=62
2-III	E-:maj6	119.531	.	voice	2E- 2g 2b-
2-III	E-:maj	120.513	.	voice	2E- 2g 2b-
=63	=63	=63	=63	=63	=63
1I	C:maj	121.494	.	voice	1C 1e 1g
=64	=64	=64	=64	=64	=64
1I	C:maj	123.458	.	voice	1C 1e 1g
=65	=65	=65	=65	=65	=65
2-III	E-:maj	125.421	newline	voice	2E- 2g 2b-
2-III7	E-:maj7	126.385	.	voice	2E- 2g 2b- 2dd
=66	=66	=66	=66	=66	=66
2-III	E-:maj6	127.349	.	voice	2E- 2g 2b-
2-III	E-:maj	128.313	.	voice	2E- 2g 2b-
=67	=67	=67	=67	=67	=67
1V	G:sus4(b7,9,13)	129.276	.	voice	1G 1b 1dd
=68	=68	=68	=68	=68	=68
1V7	G:7	131.204	.	voice	1G 1b 1dd 1ff
=69	=69	=69	=69	=69	=69
*>A_chorus	*>A_chorus	*>A_chorus	*>A_chorus	*>A_chorus	*>A_chorus
1I	C:maj	133.132	newline	voice	1C 1e 1g
=70	=70	=70	=70	=70	=70
1II	D:maj	135.091	.	voice	1D 1f# 1a
=71	=71	=71	=71	=71	=71
1IV	F:maj	137.05	.	voice	1F 1a 1cc
=72	=72	=72	=72	=72	=72
1V	G:sus4	139.009	.	voice	1G 1b 1dd
=73	=73	=73	=73	=73	=73
1I	C:maj	140.969	newline	voice	1C 1e 1g
=74	=74	=74	=74	=74	=74
1II	D:maj	142.922	.	voice	1D 1f# 1a
=75	=75	=75	=75	=75	=75
1IV	F:maj	144.875	.	voice	1F 1a 1cc
=76	=76	=76	=76	=76	=76
1V	G:sus4	146.829	.	voice	1G 1b 1dd
=77	=77	=77	=77	=77	=77
1I	C:maj	148.782	newline	voice	1C 1e 1g
=78	=78	=78	=78	=78	=78
1II	D:maj	150.75	.	voice	1D 1f# 1a
=79	=79	=79	=79	=79	=79
1IV	F:maj	152.718	.	voice	1F 1a 1cc
=80	=80	=80	=80	=80	=80
1V	G:sus4	154.686	.	voice	1G 1b 1dd
=81	=81	=81	=81	=81	=81
1I	C:maj	156.653	newline	voice	1C 1e 1g
=82	=82	=82	=82	=82	=82
1II	D:maj	158.613	.	voice	1D 1f# 1a
=83	=83	=83	=83	=83	=83
1IV	F:maj	160.573	.	voice	1F 1a 1cc
=84	=84	=84	=84	=84	=84
1V	G:sus4	162.534	.	voice	1G 1b 1dd
=85	=85	=85	=85	=85	=85
*>_fadeout	*>_fadeout	*>_fadeout	*>_fadeout	*>_fadeout	*>_fadeout
1I	C:maj	164.494	newline	voice	1C 1e 1g
=86	=86	=86	=86	=86	=86
1II	D:maj	166.468	.	voice	1D 1f# 1a
=87	=87	=87	=87	=87	=87
1IV	F:maj	168.442	.	voice	1F 1a 1cc
=88	=88	=88	=88	=88	=88
1V	G:sus4	170.417	.	voice	1G 1b 1dd
=89	=89	=89	=89	=89	=89
1I	C:maj	172.391	newline	voice	1C 1e 1g
=90	=90	=90	=90	=90	=90
1II	D:maj	174.2	.	voice	1D 1f# 1a
=91	=91	=91	=91	=91	=91
1IV	F:maj	176.009	.	voice	1F 1a 1cc
1r;	N	177.818	.	r	1r;
1r;	N	179.67	.	r	1r;
*-	*-	*-	*-	*-	*-
!!!OTL: Love Train
!!!COC: The O'Jays
!!!BillboardChartDate: 1973/04/21
!!!BillboardPeak: 1
!!!BillboardWeeksOnChart: 14
!!!SampleTargetRank: 29
!!!SampleActualRank: 28
!!!SampleID#: 0202
!!!RDF**harmony: **recip + pitch class of root + harmonic quality
!!!RDF**harte: Chris Harte's syntax, used by MIREX
!!!RDF**phrase: newline = linebreak in original McGill transcription
!!!RDF**timestamp: McGill audio timestamp in seconds
!!!RDF**leadinstrument: original McGill primary instrumentation annotation
!!!RDT: 2017/01/12/
!!!ENC: Nathaniel Condit-Schultz
!!!EST: Awating manual error checking and editing.
